src/renderer/src/assets/icons/sendMessage.svg

<svg width="34" height="34" viewBox="0 0 34 34" fill="none" xmlns="http://www.w3.org/2000/svg">
<g clip-path="url(#clip0_1569_3)">
<path d="M30.0718 16.322L9.98501 10.5551C9.20179 10.3287 8.55623 11.077 8.83105 11.7889L10.462 15.9852L25.3696 17.1873C25.6565 17.2088 25.6574 17.6314 25.3697 17.654L10.5887 18.8488L8.32721 21.0328C7.6642 21.673 8.17613 22.726 9.03634 22.6554L12.9307 22.3422L14.8446 27.2589C15.0613 27.8206 15.7508 28.0342 16.2512 27.6922L30.3409 17.9949C31.0006 17.5424 30.8221 16.5367 30.0718 16.322Z" fill="black"/>
</g>
<defs>
<clipPath id="clip0_1569_3">
<rect width="24" height="24" fill="white" transform="translate(17.2964 0.0318604) rotate(46)"/>
</clipPath>
</defs>
</svg>

<svg width="34" height="34" fill="none" xmlns="http://www.w3.org/2000/svg">
  <g clip-path="url(#prefix__clip0_1569_3)">
    <path
      d="M30.072 16.322L9.985 10.555a.938.938 0 00-1.154 1.234l1.631 4.196 14.908 1.202c.287.022.287.444 0 .467l-14.781 1.195-2.262 2.184c-.663.64-.15 1.693.71 1.622l3.894-.313 1.914 4.917a.94.94 0 001.406.433l14.09-9.697c.66-.453.481-1.458-.27-1.673z"
      fill="#000" />
  </g>
  <defs>
    <clipPath id="prefix__clip0_1569_3">
      <path fill="#fff" transform="rotate(46 8.61 20.39)" d="M0 0h24v24H0z" />
    </clipPath>
  </defs>
</svg>
